Numix-GalliumOS/64/mimetypes/application-x-subrip.svg

<?xml version="1.0" encoding="UTF-8" standalone="no"?>
<svg
   xmlns:dc="http://purl.org/dc/elements/1.1/"
   xmlns:cc="http://creativecommons.org/ns#"
   xmlns:rdf="http://www.w3.org/1999/02/22-rdf-syntax-ns#"
   xmlns:svg="http://www.w3.org/2000/svg"
   xmlns="http://www.w3.org/2000/svg"
   xmlns:sodipodi="http://sodipodi.sourceforge.net/DTD/sodipodi-0.dtd"
   xmlns:inkscape="http://www.inkscape.org/namespaces/inkscape"
   width="64"
   viewBox="0 0 64 64"
   height="64"
   id="svg2"
   version="1.1"
   inkscape:version="0.91 r13725"
   sodipodi:docname="application-x-subrip.svg">
  <metadata
     id="metadata14">
    <rdf:RDF>
      <cc:Work
         rdf:about="">
        <dc:format>image/svg+xml</dc:format>
        <dc:type
           rdf:resource="http://purl.org/dc/dcmitype/StillImage" />
        <dc:title></dc:title>
      </cc:Work>
    </rdf:RDF>
  </metadata>
  <defs
     id="defs12">
    <clipPath
       id="clipPath-156864852">
      <g
         transform="translate(0,-1004.3622)"
         id="g12">
        <path
           style="fill:#1890d0"
           inkscape:connector-curvature="0"
           d="m -24,13 c 0,1.105 -0.672,2 -1.5,2 -0.828,0 -1.5,-0.895 -1.5,-2 0,-1.105 0.672,-2 1.5,-2 0.828,0 1.5,0.895 1.5,2 z"
           transform="matrix(15.333333,0,0,11.5,414.99999,878.8622)"
           id="path14" />
      </g>
    </clipPath>
    <clipPath
       id="clipPath-165128749">
      <g
         transform="translate(0,-1004.3622)"
         id="g17">
        <path
           style="fill:#1890d0"
           inkscape:connector-curvature="0"
           d="m -24,13 c 0,1.105 -0.672,2 -1.5,2 -0.828,0 -1.5,-0.895 -1.5,-2 0,-1.105 0.672,-2 1.5,-2 0.828,0 1.5,0.895 1.5,2 z"
           transform="matrix(15.333333,0,0,11.5,414.99999,878.8622)"
           id="path19" />
      </g>
    </clipPath>
  </defs>
  <sodipodi:namedview
     pagecolor="#ffffff"
     bordercolor="#666666"
     borderopacity="1"
     objecttolerance="10"
     gridtolerance="10"
     guidetolerance="10"
     inkscape:pageopacity="0"
     inkscape:pageshadow="2"
     inkscape:window-width="1920"
     inkscape:window-height="1016"
     id="namedview10"
     showgrid="true"
     inkscape:zoom="11.313709"
     inkscape:cx="32.71283"
     inkscape:cy="29.616764"
     inkscape:window-x="0"
     inkscape:window-y="27"
     inkscape:window-maximized="1"
     inkscape:current-layer="svg2">
    <inkscape:grid
       type="xygrid"
       id="grid4146" />
  </sodipodi:namedview>
  <path
     style="fill:#376a94;fill-opacity:1"
     d="M 10.666667,0 C 9.2952387,0 8,1.351553 8,2.782609 L 8,61.217391 C 8,62.568945 9.3714293,64 10.666667,64 l 42.666666,0 C 54.628572,64 56,62.568945 56,61.217391 L 56,18 39,0 Z"
     id="path4"
     inkscape:connector-curvature="0"
     sodipodi:nodetypes="ssssssccs" />
  <path
     style="fill:#ffffff;fill-opacity:0.39200003"
     d="M 39,-0.086956 56,18 41.615384,18 C 40.345054,18 39,16.568945 39,15.217392 l 0,-15.304348 z"
     id="path8"
     inkscape:connector-curvature="0" />
  <g
     transform="matrix(1.0829907,0,0,1.0521164,6.0155837,11.373623)"
     id="g49"
     style="fill:#ffffff">
    <g
       clip-path="url(#clipPath-165128749)"
       id="g51"
       style="fill:#ffffff">
      <!-- color: #474747 -->
      <g
         id="g53"
         style="fill:#ffffff">
        <path
           d="m 19.191685,12.000931 c -3.926,0 -7.202279,3.877819 -7.202278,7.803819 l 10e-7,3.90191 c 1e-6,3.926 3.276277,7.303575 7.202277,7.303575 l 9.603037,0 c 3.925956,0 7.202277,-3.377574 7.202278,-7.303575 l 0,-3.90191 c 0,-3.926 -3.276278,-7.803819 -7.202278,-7.803819"
           id="path55"
           inkscape:connector-curvature="0"
           style="fill:#ffffff;fill-opacity:1;fill-rule:nonzero;stroke:none"
           sodipodi:nodetypes="cssssssc" />
        <path
           style="fill:#ffffff;fill-opacity:1;fill-rule:nonzero;stroke:none"
           inkscape:connector-curvature="0"
           d="m 33.226893,27.208374 -13.850534,0 -3.693476,9.504651"
           id="path57"
           sodipodi:nodetypes="ccc" />
      </g>
    </g>
  </g>
  <path
     inkscape:connector-curvature="0"
     style="fill:#000000;fill-opacity:0.19607801;fill-rule:nonzero;stroke:none"
     d="m 42,18 14,14 0,-14 z m 0,0"
     id="path7" />
</svg>

<svg xmlns="http://www.w3.org/2000/svg" viewBox="0 0 64 64">
 <path d="m 10.667 0 c -1.371 0 -2.667 1.352 -2.667 2.783 l 0 58.43 c 0 1.352 1.371 2.783 2.667 2.783 l 42.667 0 c 1.295 0 2.667 -1.431 2.667 -2.783 l 0 -43.22 -17 -18" style="fill:#376a94;fill-opacity:1"/>
 <path d="m 39 -0.087 17 18.09 -14.385 0 c -1.27 0 -2.615 -1.431 -2.615 -2.783 l 0 -15.304 z" style="fill:#fff;fill-opacity:0.392"/>
 <g transform="matrix(1.0829907,0,0,1.0521164,6.0155837,11.373623)" style="fill:#fff">
  <!-- color: #474747 -->
  <g style="fill:#fff">
   <path d="m 19.19,12 c -3.926,0 -7.202,3.878 -7.202,7.804 l 0,3.902 c 0,3.926 3.276,7.304 7.202,7.304 l 9.603,0 c 3.926,0 7.202,-3.378 7.202,-7.304 l 0,-3.902 C 35.995,15.878 32.719,12 28.793,12" style="fill:#fff;fill-opacity:1;stroke:none;fill-rule:nonzero"/>
   <path d="m 33.23 27.21 -13.851 0 -3.693 9.505" style="fill:#fff;fill-opacity:1;stroke:none;fill-rule:nonzero"/>
  </g>
 </g>
 <path d="m 42 18 14 14 0 -14 z m 0 0" style="fill:#000;fill-opacity:0.196;stroke:none;fill-rule:nonzero"/>
</svg>
